Numix-GalliumOS/16/panel/diodon-panel.svg

<?xml version="1.0" encoding="UTF-8" standalone="no"?>
<svg
   xmlns:dc="http://purl.org/dc/elements/1.1/"
   xmlns:cc="http://creativecommons.org/ns#"
   xmlns:rdf="http://www.w3.org/1999/02/22-rdf-syntax-ns#"
   xmlns:svg="http://www.w3.org/2000/svg"
   xmlns="http://www.w3.org/2000/svg"
   xmlns:sodipodi="http://sodipodi.sourceforge.net/DTD/sodipodi-0.dtd"
   xmlns:inkscape="http://www.inkscape.org/namespaces/inkscape"
   width="16"
   height="16"
   viewBox="0 0 16 16"
   id="svg2"
   version="1.1"
   inkscape:version="0.91 r"
   sodipodi:docname="diodon-panel.svg">
  <metadata
     id="metadata14">
    <rdf:RDF>
      <cc:Work
         rdf:about="">
        <dc:format>image/svg+xml</dc:format>
        <dc:type
           rdf:resource="http://purl.org/dc/dcmitype/StillImage" />
      </cc:Work>
    </rdf:RDF>
  </metadata>
  <defs
     id="defs12" />
  <sodipodi:namedview
     pagecolor="#ffffff"
     bordercolor="#666666"
     borderopacity="1"
     objecttolerance="10"
     gridtolerance="10"
     guidetolerance="10"
     inkscape:pageopacity="0"
     inkscape:pageshadow="2"
     inkscape:window-width="688"
     inkscape:window-height="480"
     id="namedview10"
     showgrid="false"
     inkscape:zoom="14.75"
     inkscape:cx="8"
     inkscape:cy="8"
     inkscape:window-x="0"
     inkscape:window-y="0"
     inkscape:window-maximized="0"
     inkscape:current-layer="svg2" />
  <path
     style="fill:#ececec;fill-opacity:1"
     inkscape:connector-curvature="0"
     id="path8"
     d="m 13.816406,11.722656 c 0,0.59375 -0.21875,1.09375 -0.65625,1.492188 -0.4375,0.402344 -0.980468,0.601562 -1.628906,0.601562 -0.746094,0 -1.398438,-0.253906 -1.953125,-0.757812 L 3.121094,7.148438 C 2.496094,6.5625 2.183594,5.875 2.183594,5.082031 c 0,-0.804687 0.304687,-1.492187 0.914062,-2.054687 0.609375,-0.5625 1.351563,-0.84375 2.234375,-0.84375 0.875,0 1.632813,0.285156 2.269531,0.859375 l 5.027344,4.613281 c 0.05469,0.050781 0.08203,0.109375 0.08203,0.167969 0,0.082031 -0.08203,0.199219 -0.25,0.355469 -0.171874,0.152343 -0.30078,0.230468 -0.386717,0.230468 C 12,8.410156 11.9375,8.386719 11.882812,8.335938 L 6.84375,3.710938 C 6.40625,3.320312 5.90625,3.125 5.339844,3.125 c -0.585938,0 -1.082032,0.191406 -1.488282,0.574219 -0.402343,0.378906 -0.605468,0.839843 -0.605468,1.375 0,0.535156 0.210937,0.992187 0.632812,1.378906 l 6.449219,5.917969 c 0.347656,0.320312 0.75,0.480468 1.203125,0.480468 0.355469,0 0.648438,-0.105468 0.882812,-0.320312 0.230469,-0.214844 0.347657,-0.480469 0.347657,-0.808594 0,-0.414062 -0.171875,-0.78125 -0.523438,-1.101562 L 7.410156,6.195312 C 7.265625,6.074219 7.097656,6.011719 6.910156,6.011719 6.75,6.011719 6.617188,6.0625 6.511719,6.15625 6.40625,6.253906 6.355469,6.375 6.355469,6.523438 c 0,0.160156 0.066406,0.3125 0.207031,0.449218 l 3.40625,3.121094 c 0.054688,0.05078 0.085938,0.105469 0.085938,0.167969 0,0.08203 -0.085938,0.199219 -0.257813,0.359375 -0.171875,0.15625 -0.304687,0.234375 -0.390625,0.234375 -0.066406,0 -0.128906,-0.02344 -0.183594,-0.07422 L 5.8125,7.65625 C 5.464844,7.347656 5.289062,6.96875 5.289062,6.523438 c 0,-0.417969 0.160157,-0.769532 0.476563,-1.058594 0.3125,-0.289063 0.699219,-0.433594 1.152344,-0.433594 0.488281,0 0.902343,0.160156 1.238281,0.480469 l 4.832031,4.421875 c 0.554688,0.5 0.828125,1.09375 0.828125,1.789062 z" />
</svg>

<svg xmlns="http://www.w3.org/2000/svg" viewBox="0 0 16 16">
 <path d="m 13.816 11.723 c 0 0.594 -0.219 1.094 -0.656 1.492 -0.438 0.402 -0.98 0.602 -1.629 0.602 -0.746 0 -1.398 -0.254 -1.953 -0.758 l -6.457 -5.91 c -0.625 -0.586 -0.938 -1.273 -0.938 -2.066 c 0 -0.805 0.305 -1.492 0.914 -2.055 0.609 -0.563 1.352 -0.844 2.234 -0.844 0.875 0 1.633 0.285 2.27 0.859 l 5.03 4.613 c 0.055 0.051 0.082 0.109 0.082 0.168 0 0.082 -0.082 0.199 -0.25 0.355 -0.172 0.152 -0.301 0.23 -0.387 0.23 c -0.074 0 -0.137 -0.023 -0.191 -0.074 l -5.04 -4.625 c -0.438 -0.391 -0.938 -0.586 -1.504 -0.586 c -0.586 0 -1.082 0.191 -1.488 0.574 -0.402 0.379 -0.605 0.84 -0.605 1.375 0 0.535 0.211 0.992 0.633 1.379 l 6.449 5.918 c 0.348 0.32 0.75 0.48 1.203 0.48 0.355 0 0.648 -0.105 0.883 -0.32 0.23 -0.215 0.348 -0.48 0.348 -0.809 0 -0.414 -0.172 -0.781 -0.523 -1.102 l -4.828 -4.426 c -0.145 -0.121 -0.313 -0.184 -0.5 -0.184 -0.16 0 -0.293 0.051 -0.398 0.145 -0.105 0.098 -0.156 0.219 -0.156 0.367 c 0 0.16 0.066 0.313 0.207 0.449 l 3.406 3.121 c 0.055 0.051 0.086 0.105 0.086 0.168 0 0.082 -0.086 0.199 -0.258 0.359 -0.172 0.156 -0.305 0.234 -0.391 0.234 -0.066 0 -0.129 -0.023 -0.184 -0.074 l -3.41 -3.125 c -0.348 -0.309 -0.523 -0.688 -0.523 -1.133 c 0 -0.418 0.16 -0.77 0.477 -1.059 0.313 -0.289 0.699 -0.434 1.152 -0.434 0.488 0 0.902 0.16 1.238 0.48 l 4.832 4.422 c 0.555 0.5 0.828 1.094 0.828 1.789 z" style="fill:#ececec;fill-opacity:1"/>
</svg>
